src/pos-icons/zodiac-virgo.svg

<svg height="24" viewBox="0 0 24 24" width="24" xmlns="http://www.w3.org/2000/svg"><path d="m18.5 19.13c1.5-1.36 1.5-3.95 1.5-5.13a4 4 0 0 0 -4-4c-.7 0-1.4.2-2 .56v-4.56a3 3 0 0 0 -3-3c-.75 0-1.45.29-2 .78-1.14-1.02-2.86-1.02-4 0-.55-.5-1.26-.78-2-.78v2a1 1 0 0 1 1 1v10h2v-10a1 1 0 0 1 1-1 1 1 0 0 1 1 1v10h2v-10a1 1 0 0 1 1-1 1 1 0 0 1 1 1v8c0 1.18 0 3.77 1.5 5.13-.78.41-1.62.71-2.5.87v2c1.29 0 3.84-1.26 5-1.87 1.16.61 3.71 1.87 5 1.87v-2c-.88-.16-1.72-.46-2.5-.87m-2.5-7.13a2 2 0 0 1 2 2c0 2.92-.54 4-2 4s-2-1.08-2-4a2 2 0 0 1 2-2z"/></svg>

<?xml version="1.0" encoding="UTF-8"?><!DOCTYPE svg PUBLIC "-//W3C//DTD SVG 1.1//EN" "http://www.w3.org/Graphics/SVG/1.1/DTD/svg11.dtd"><svg xmlns="http://www.w3.org/2000/svg" xmlns:xlink="http://www.w3.org/1999/xlink" version="1.1" id="mdi-zodiac-virgo" width="24" height="24" viewBox="0 0 24 24"><path d="M18.5,19.13C20,17.77 20,15.18 20,14A4,4 0 0,0 16,10C15.3,10 14.6,10.2 14,10.56V6A3,3 0 0,0 11,3C10.25,3 9.55,3.29 9,3.78C7.86,2.76 6.14,2.76 5,3.78C4.45,3.28 3.74,3 3,3V5A1,1 0 0,1 4,6V16H6V6A1,1 0 0,1 7,5A1,1 0 0,1 8,6V16H10V6A1,1 0 0,1 11,5A1,1 0 0,1 12,6V14C12,15.18 12,17.77 13.5,19.13C12.72,19.54 11.88,19.84 11,20V22C12.29,22 14.84,20.74 16,20.13C17.16,20.74 19.71,22 21,22V20C20.12,19.84 19.28,19.54 18.5,19.13M16,12A2,2 0 0,1 18,14C18,16.92 17.46,18 16,18C14.54,18 14,16.92 14,14A2,2 0 0,1 16,12Z" /></svg>
